svg/m/BA.svg

<svg width="20" height="15" viewBox="0 0 20 15" fill="none" xmlns="http://www.w3.org/2000/svg">
<g clip-path="url(#clip0_270_61029)">
<rect width="20" height="15" fill="white"/>
<path fill-rule="evenodd" clip-rule="evenodd" d="M0 0H20.25V15H0V0Z" fill="#2E42A5"/>
<path fill-rule="evenodd" clip-rule="evenodd" d="M6.25 0H19V15L6.25 0Z" fill="#FECA00"/>
<path fill-rule="evenodd" clip-rule="evenodd" d="M4.44251 1.74609L3.70778 2.13236L3.8481 1.31423L3.25369 0.734823L4.07515 0.615458L4.44251 -0.128906L4.80988 0.615458L5.63133 0.734823L5.03692 1.31423L5.17724 2.13236L4.44251 1.74609Z" fill="#F7FCFF"/>
<path fill-rule="evenodd" clip-rule="evenodd" d="M6.6217 4.4212L5.88697 4.80747L6.02729 3.98934L5.43288 3.40993L6.25433 3.29057L6.6217 2.5462L6.98906 3.29057L7.81052 3.40993L7.21611 3.98934L7.35643 4.80747L6.6217 4.4212Z" fill="#F7FCFF"/>
<path fill-rule="evenodd" clip-rule="evenodd" d="M8.66462 7.02399L7.92989 7.41026L8.07021 6.59212L7.4758 6.01272L8.29725 5.89335L8.66462 5.14899L9.03199 5.89335L9.85344 6.01272L9.25903 6.59212L9.39935 7.41026L8.66462 7.02399Z" fill="#F7FCFF"/>
<path fill-rule="evenodd" clip-rule="evenodd" d="M10.6658 9.51825L9.93111 9.90452L10.0714 9.08639L9.47702 8.50698L10.2985 8.38761L10.6658 7.64325L11.0332 8.38761L11.8547 8.50698L11.2603 9.08639L11.4006 9.90452L10.6658 9.51825Z" fill="#F7FCFF"/>
<path fill-rule="evenodd" clip-rule="evenodd" d="M12.8215 12.0854L12.0868 12.4717L12.2271 11.6536L11.6327 11.0742L12.4541 10.9548L12.8215 10.2104L13.1889 10.9548L14.0103 11.0742L13.4159 11.6536L13.5562 12.4717L12.8215 12.0854Z" fill="#F7FCFF"/>
<path fill-rule="evenodd" clip-rule="evenodd" d="M15.2043 14.5694L14.4695 14.9557L14.6099 14.1375L14.0155 13.5581L14.8369 13.4388L15.2043 12.6944L15.5716 13.4388L16.3931 13.5581L15.7987 14.1375L15.939 14.9557L15.2043 14.5694Z" fill="#F7FCFF"/>
</g>
<defs>
<clipPath id="clip0_270_61029">
<rect width="20" height="15" fill="white"/>
</clipPath>
</defs>
</svg>

<svg width="21" height="15" fill="none" xmlns="http://www.w3.org/2000/svg">
  <mask id="a" maskUnits="userSpaceOnUse" x="0" y="0" width="22" height="15">
    <path fill="#fff" d="M0 0h21.25v15H0z"/>
  </mask>
  <g mask="url(#a)" fill-rule="evenodd" clip-rule="evenodd">
    <path d="M0 0h20.25v15H0V0z" fill="#2E42A5"/>
    <path d="M6.25 0H19v15L6.25 0z" fill="#FECA00"/>
    <path d="M4.443 1.746l-.735.386.14-.818-.594-.58.821-.119.368-.744.367.744.821.12-.594.58.14.817-.734-.386zm2.179 2.675l-.735.386.14-.818-.594-.58.821-.118.368-.745.367.745.822.119-.595.58.14.817-.734-.386zm2.043 2.603l-.735.386.14-.818-.594-.58.821-.119.368-.744.367.744.821.12-.594.58.14.817-.734-.386zm2.001 2.494l-.735.387.14-.819-.594-.579.822-.12.367-.744.367.745.822.119-.595.58.14.818-.734-.387zm2.156 2.567l-.735.387.14-.818-.594-.58.821-.12.367-.744.368.745.821.12-.594.579.14.818-.734-.387zm2.382 2.485l-.735.386.14-.819-.594-.579.822-.12.367-.744.368.745.821.12-.594.579.14.818-.735-.387z" fill="#F7FCFF"/>
  </g>
</svg>
